content/images/project/skywalking-website.svg

<svg width="36" height="36" viewBox="0 0 36 36" fill="none" xmlns="http://www.w3.org/2000/svg">
<path d="M0 4C0 1.79086 1.79086 0 4 0H32C34.2091 0 36 1.79086 36 4V32C36 34.2091 34.2091 36 32 36H4C1.79086 36 0 34.2091 0 32V4Z" fill="#3987CD"/>
<path fill-rule="evenodd" clip-rule="evenodd" d="M22.9501 18C22.9501 18.748 22.8841 19.474 22.7961 20.2H26.4775C26.2754 20.9809 25.9683 21.7196 25.572 22.4H22.3671C22.0191 23.7594 21.5205 25.0651 20.8714 26.2745C19.9719 26.5866 19.0058 26.7562 18 26.7562C16.9893 26.7562 16.0185 26.5849 15.1152 26.2699C14.4676 25.0618 13.9802 23.7577 13.6001 22.4H10.4279C10.0317 21.7196 9.72457 20.9809 9.52248 20.2H13.2041C13.1161 19.474 13.0501 18.748 13.0501 18C13.0501 17.252 13.1161 16.526 13.2041 15.8H9.52246C9.72454 15.0191 10.0317 14.2804 10.4279 13.6H13.6001C13.9802 12.2423 14.4677 10.9382 15.1153 9.73006C16.0164 9.41577 16.9846 9.2446 17.9926 9.24377C17.0831 10.561 16.3489 12.0313 15.8991 13.6H20.1011C19.6513 12.0313 18.9171 10.561 18.0075 9.24377C19.0106 9.24462 19.9741 9.41412 20.8714 9.72544C21.5205 10.9348 22.0191 12.2405 22.3671 13.6H25.5721C25.9683 14.2804 26.2754 15.0191 26.4775 15.8H22.7961C22.8841 16.526 22.9501 17.252 22.9501 18ZM15.4261 20.2H20.5741C20.6731 19.474 20.7501 18.748 20.7501 18C20.7501 17.252 20.6731 16.515 20.5741 15.8H15.4261C15.3161 16.515 15.2501 17.252 15.2501 18C15.2501 18.748 15.3161 19.474 15.4261 20.2ZM15.8991 22.4C16.3501 23.973 17.087 25.4362 18 26.7562C18.913 25.4362 19.6501 23.973 20.1011 22.4H15.8991Z" fill="white" fill-opacity="0.5"/>
<path fill-rule="evenodd" clip-rule="evenodd" d="M26.8 18C26.8 22.8601 22.8601 26.8 18 26.8C13.1399 26.8 9.2 22.8601 9.2 18C9.2 13.1399 13.1399 9.2 18 9.2C22.8601 9.2 26.8 13.1399 26.8 18ZM7 18C7 11.95 11.917 7 18 7C19.4445 7 20.8749 7.28452 22.2095 7.83733C23.5441 8.39013 24.7567 9.20038 25.7782 10.2218C26.7996 11.2433 27.6099 12.4559 28.1627 13.7905C28.7155 15.1251 29 16.5555 29 18C29 20.9174 27.8411 23.7153 25.7782 25.7782C23.7153 27.8411 20.9174 29 18 29C16.5555 29 15.1251 28.7155 13.7905 28.1627C12.4559 27.6099 11.2433 26.7996 10.2218 25.7782C8.15893 23.7153 7 20.9174 7 18Z" fill="white"/>
</svg>

<svg xmlns="http://www.w3.org/2000/svg" width="36" height="36" fill="none" viewBox="0 0 36 36"><path fill="#3987CD" d="M0 4a4 4 0 0 1 4-4h28a4 4 0 0 1 4 4v28a4 4 0 0 1-4 4H4a4 4 0 0 1-4-4V4Z"/><path fill="#fff" fill-opacity=".5" fill-rule="evenodd" d="M22.95 18c0 .748-.066 1.474-.154 2.2h3.681a8.715 8.715 0 0 1-.905 2.2h-3.205a17.23 17.23 0 0 1-1.496 3.875c-.9.312-1.865.481-2.871.481a8.745 8.745 0 0 1-2.885-.486c-.647-1.208-1.135-2.512-1.515-3.87h-3.172a8.705 8.705 0 0 1-.906-2.2h3.682a18.167 18.167 0 0 1-.154-2.2c0-.748.066-1.474.154-2.2H9.522c.203-.78.51-1.52.906-2.2H13.6c.38-1.358.868-2.662 1.515-3.87a8.743 8.743 0 0 1 2.878-.486c-.91 1.317-1.644 2.787-2.094 4.356h4.202c-.45-1.569-1.184-3.039-2.093-4.356 1.003 0 1.966.17 2.863.481a17.227 17.227 0 0 1 1.496 3.875h3.205c.396.68.703 1.42.905 2.2h-3.68c.087.726.153 1.452.153 2.2Zm-7.524 2.2h5.148c.1-.726.176-1.452.176-2.2 0-.748-.077-1.485-.176-2.2h-5.148a14.48 14.48 0 0 0-.176 2.2c0 .748.066 1.474.176 2.2Zm.473 2.2c.451 1.573 1.188 3.036 2.101 4.356.913-1.32 1.65-2.783 2.101-4.356H15.9Z" clip-rule="evenodd"/><path fill="#fff" fill-rule="evenodd" d="M26.8 18a8.8 8.8 0 1 1-17.6 0 8.8 8.8 0 0 1 17.6 0ZM7 18c0-6.05 4.917-11 11-11A11 11 0 1 1 7 18Z" clip-rule="evenodd"/></svg>
